Papirus/64x64/apps/mx-datetime.svg

<svg width="64" height="64" version="1.1" xmlns="http://www.w3.org/2000/svg">
 <path d="M 4,21.9 V 55.199219 C 4,56.750419 5.2495813,58 6.8007812,58 H 56.199609 c 1.551201,0 2.754237,-1.250279 2.800782,-2.800781 V 21.9 Z" style="opacity:.2"/>
 <path d="M 4,20.9 V 54.199219 C 4,55.750419 5.2495813,57 6.8007812,57 H 56.199609 c 1.551201,0 2.800782,-1.249581 2.800782,-2.800781 V 20.9 Z" style="fill:#e4e4e4"/>
 <path d="m59.000391 22v-11.2c0-1.5512-1.248801-2.8-2.8-2.8h-49.400391c-1.5512 0-2.8 1.2488-2.8 2.8v11.2z" style="opacity:.2"/>
 <path d="m59.000391 21v-11.2c0-1.5512-1.248801-2.8-2.8-2.8h-49.400391c-1.5512 0-2.8 1.2488-2.8 2.8v11.2z" style="fill:#0f56d9"/>
 <rect x="33" y="24" width="8" height="8" style="opacity:.2"/>
 <rect x="44" y="24" width="8" height="8" style="opacity:.2"/>
 <rect x="22" y="24" width="8" height="8" style="opacity:.2"/>
 <rect x="11" y="24" width="8" height="8" style="opacity:.2"/>
 <circle cx="37" cy="40" r="4" style="opacity:.2"/>
 <circle cx="37" cy="39" r="4" style="fill:#f54b3e"/>
 <circle cx="14.5" cy="14.5" r="2.5" style="opacity:.2"/>
 <circle cx="14.5" cy="13.5" r="2.5" style="fill:#ffffff"/>
 <circle cx="48.5" cy="14.5" r="2.5" style="opacity:.2"/>
 <circle cx="48.5" cy="13.5" r="2.5" style="fill:#ffffff"/>
 <rect x="44" y="35" width="8" height="8" style="opacity:.2"/>
 <rect x="22" y="35" width="8" height="8" style="opacity:.2"/>
 <rect x="11" y="35" width="8" height="8" style="opacity:.2"/>
 <rect x="33" y="46" width="8" height="8" style="opacity:.2"/>
 <rect x="44" y="46" width="8" height="8" style="opacity:.2"/>
 <rect x="22" y="46" width="8" height="8" style="opacity:.2"/>
 <rect x="11" y="46" width="8" height="8" style="opacity:.2"/>
 <path d="M 6.8007812,7 C 5.2495813,7 4,8.2495812 4,9.8007812 V 10.800781 C 4,9.2495812 5.2495813,8 6.8007812,8 H 56.201172 C 57.752371,8 59,9.2495813 59,10.800781 V 9.8007812 C 59,8.2495813 57.752371,7 56.201172,7 Z" style="fill:#ffffff;opacity:.2"/>
 <circle cx="32" cy="42" r="16" style="fill-opacity:.2"/>
 <circle cx="32" cy="40" r="16" style="fill:#ff3800"/>
 <path d="m32 29.999932c-5.522848 0-10 4.477032-10 10.000072s4.477152 10.000072 10 10.000072c5.522846 0 9.999998-4.477032 9.999998-10.000072s-4.477152-10.000072-9.999998-10.000072zm0 2.000016c4.418276 0 7.999998 3.582024 7.999998 8.000056s-3.581722 8.000056-7.999998 8.000056-8-3.582024-8-8.000056 3.581724-8.000056 8-8.000056zm-1 2.000014v7.00005h6.999998v-2.000016h-4.999998v-5.000034z" style="fill:#ffffff"/>
</svg>

<svg xmlns="http://www.w3.org/2000/svg" width="64" height="64" version="1.1">
 <rect style="opacity:0.2" width="55" height="39" x="4" y="20" rx="2.8" ry="2.8"/>
 <rect style="fill:#e4e4e4" width="55" height="39" x="4" y="19" rx="2.8" ry="2.8"/>
 <path style="fill:#0f56d9" d="M 59,22 V 10.8 C 59,9.2488 57.752,8 56.2,8 H 6.8 C 5.2488,8 4,9.2488 4,10.8 V 22 Z"/>
 <rect style="opacity:0.2" width="8" height="8" x="33" y="25"/>
 <rect style="opacity:0.2" width="8" height="8" x="44" y="25"/>
 <rect style="opacity:0.2" width="8" height="8" x="22" y="25"/>
 <rect style="opacity:0.2" width="8" height="8" x="11" y="25"/>
 <circle style="opacity:0.2" cx="37" cy="41" r="4"/>
 <circle style="fill:#f54b3e" cx="37" cy="40" r="4"/>
 <circle style="opacity:0.2" cx="14.5" cy="15.5" r="2.5"/>
 <circle style="fill:#ffffff" cx="14.5" cy="14.5" r="2.5"/>
 <circle style="opacity:0.2" cx="48.5" cy="15.5" r="2.5"/>
 <circle style="fill:#ffffff" cx="48.5" cy="14.5" r="2.5"/>
 <rect style="opacity:0.2" width="8" height="8" x="44" y="36"/>
 <rect style="opacity:0.2" width="8" height="8" x="22" y="36"/>
 <rect style="opacity:0.2" width="8" height="8" x="11" y="36"/>
 <rect style="opacity:0.2" width="8" height="8" x="33" y="47"/>
 <rect style="opacity:0.2" width="8" height="8" x="44" y="47"/>
 <rect style="opacity:0.2" width="8" height="8" x="22" y="47"/>
 <rect style="opacity:0.2" width="8" height="8" x="11" y="47"/>
 <circle style="opacity:0.2" cx="32" cy="41" r="14"/>
 <circle style="fill:#ff3800" cx="32" cy="40" r="14"/>
 <path style="fill:#ffffff" d="M 32,30 C 26.477,30 22,34.477 22,40 22,45.523 26.477,50 32,50 37.523,50 42,45.523 42,40 42,34.477 37.523,30 32,30 Z M 32,32 C 36.418,32 40,35.582 40,40 40,44.418 36.418,48 32,48 27.582,48 24,44.418 24,40 24,35.582 27.582,32 32,32 Z M 31,34 V 41 H 38 V 39 H 33 V 34 Z"/>
 <rect style="opacity:0.2" width="55" height="1" x="4" y="22"/>
 <path style="fill:#ffffff;opacity:0.1" d="M 6.8008 8 C 5.2496 8 4 9.2496 4 10.801 L 4 11.801 C 4 10.25 5.2496 9 6.8008 9 L 56.199 9 C 57.751 9 59 10.25 59 11.801 L 59 10.801 C 59 9.2496 57.751 8 56.199 8 L 6.8008 8 z"/>
</svg>
